packages/dnb-ui-lib/assets/icons/upload_medium.svg

<svg width="24" height="24" viewBox="0 0 24 24" fill="none" xmlns="http://www.w3.org/2000/svg">
<path d="M7.21967 9.46967C6.92678 9.76256 6.92678 10.2374 7.21967 10.5303C7.51256 10.8232 7.98744 10.8232 8.28033 10.5303L7.21967 9.46967ZM12 5.75L12.5303 5.21967C12.2374 4.92678 11.7626 4.92678 11.4697 5.21967L12 5.75ZM15.7197 10.5303C16.0126 10.8232 16.4874 10.8232 16.7803 10.5303C17.0732 10.2374 17.0732 9.76256 16.7803 9.46967L15.7197 10.5303ZM11.25 19.25C11.25 19.6642 11.5858 20 12 20C12.4142 20 12.75 19.6642 12.75 19.25H11.25ZM4 0.25C3.58579 0.25 3.25 0.585786 3.25 1C3.25 1.41421 3.58579 1.75 4 1.75V0.25ZM20 1.75C20.4142 1.75 20.75 1.41421 20.75 1C20.75 0.585786 20.4142 0.25 20 0.25V1.75ZM8.28033 10.5303L12.5303 6.28033L11.4697 5.21967L7.21967 9.46967L8.28033 10.5303ZM11.4697 6.28033L15.7197 10.5303L16.7803 9.46967L12.5303 5.21967L11.4697 6.28033ZM12.75 19.25V5.75H11.25V19.25H12.75ZM4 1.75H20V0.25H4V1.75Z" fill="black"/>
</svg>

<svg width="24" height="24" viewBox="0 0 24 24" fill="none" xmlns="http://www.w3.org/2000/svg"><path d="M7.22 9.47a.75.75 0 101.06 1.06L7.22 9.47zM12 5.75l.53-.53a.75.75 0 00-1.06 0l.53.53zm3.72 4.78a.75.75 0 101.06-1.06l-1.06 1.06zm-4.47 8.72a.75.75 0 001.5 0h-1.5zM4 .25a.75.75 0 000 1.5V.25zm16 1.5a.75.75 0 000-1.5v1.5zM8.28 10.53l4.25-4.25-1.06-1.06-4.25 4.25 1.06 1.06zm3.19-4.25l4.25 4.25 1.06-1.06-4.25-4.25-1.06 1.06zm1.28 12.97V5.75h-1.5v13.5h1.5zM4 1.75h16V.25H4v1.5z" fill="#000"/></svg>
